buffet.svg

<svg fill="currentColor" viewBox="0 0 24 24"><path d="M9 14c.55 0 1 .45 1 1s-.45 1-1 1-1-.45-1-1 .45-1 1-1m6 0c.55 0 1 .45 1 1s-.45 1-1 1-1-.45-1-1 .45-1 1-1M3 22l1-3H3c-.55 0-1-.45-1-1v-6c0-.55.45-1 1-1h18c.55 0 1 .45 1 1v6c0 .55-.45 1-1 1h-1l1 3h-2l-1-3H6l-1 3zm10-9v4h7v-4zm-9 0v4h7v-4z"/></svg>

<svg  viewBox="0 0 24 24" fill="currentColor"><path  d="M9 14C9.55 14 10 14.45 10 15C10 15.55 9.55 16 9 16C8.45 16 8 15.55 8 15C8 14.45 8.45 14 9 14M15 14C15.55 14 16 14.45 16 15C16 15.55 15.55 16 15 16C14.45 16 14 15.55 14 15C14 14.45 14.45 14 15 14M3 22L4 19H3C2.45 19 2 18.55 2 18V12C2 11.45 2.45 11 3 11H21C21.55 11 22 11.45 22 12V18C22 18.55 21.55 19 21 19H20L21 22H19L18 19H6L5 22H3M13 13V17H20V13H13M4 13V17H11V13H4Z"/></svg>
